widgets/eBookmark/setting/css/images/btns/edit.svg

<?xml version="1.0" encoding="UTF-8"?>
<svg width="10px" height="10px" viewBox="0 0 10 10" version="1.1" xmlns="http://www.w3.org/2000/svg" xmlns:xlink="http://www.w3.org/1999/xlink">
    <!-- Generator: Sketch 44.1 (41455) - http://www.bohemiancoding.com/sketch -->
    <title>Edit</title>
    <desc>Created with Sketch.</desc>
    <defs></defs>
    <g id="Basemap" stroke="none" stroke-width="1" fill="none" fill-rule="evenodd">
        <g id="Basemap_Setting-Custom-Hover" transform="translate(-692.000000, -513.000000)" fill="#FFFFFF">
            <g id="Setting" transform="translate(220.000000, 112.000000)">
                <g id="Basemap" transform="translate(30.000000, 144.000000)">
                    <g id="Hover" transform="translate(327.000000, 182.000000)">
                        <g id="Edit" transform="translate(110.000000, 70.000000)">
                            <g transform="translate(5.000000, 5.000000)" id="Shape">
                                <path d="M0,7.88888889 L0,10 L2.11111111,10 L8.22222222,3.83333333 L6.11111111,1.72222222 L0,7.88888889 L0,7.88888889 Z M9.83333333,2.22222222 C10.0555556,2 10.0555556,1.66666667 9.83333333,1.44444444 L8.55555556,0.166666667 C8.33333333,-0.0555555556 8,-0.0555555556 7.77777778,0.166666667 L6.77777778,1.16666667 L8.88888889,3.27777778 L9.83333333,2.22222222 L9.83333333,2.22222222 Z"></path>
                            </g>
                        </g>
                    </g>
                </g>
            </g>
        </g>
    </g>
</svg>

<svg width="10" height="10" xmlns="http://www.w3.org/2000/svg"><path d="M0 7.889V10h2.111l6.111-6.167-2.11-2.11L0 7.888zm9.833-5.667a.537.537 0 0 0 0-.778L8.556.167a.537.537 0 0 0-.778 0l-1 1 2.11 2.11.945-1.055z" fill="#FFF" fill-rule="evenodd"/></svg>
